!!!!SEGMENT: Distler_Jahrkreis_11_Wie-schoen-leucht-uns-der-Morgenstern.krn
!!!COM: Distler, Hugo
!!!CDT: 1908-1942
!!!OPR@@DE: Der Jahrkreis
!!!OPR@EN: The Year Cycle
!!!OTL@@DE: Wie schön leucht't uns der Morgenstern
!!!OTL@EN: How beautifully the morning star shines for us
!!!OPS: 5
!!!ONM: 11
!!!RNB: Instrumental ritornello after work not encoded.
**kern	**text	**kern	**text	**kern	**text
*part3	*part3	*part2	*part2	*part1	*part1
*staff3	*staff3	*staff2	*staff2	*staff1	*staff1
*Ibass	*	*Ialto	*	*Isoprn	*
*clefF4	*	*clefG2	*	*clefG2	*
*k[f#c#]	*	*k[f#c#]	*	*k[f#c#]	*
*MM120	*	*MM120	*	*MM120	*
*M3/2	*	*M3/2	*	*M3/2	*
2r	.	2d	Wie	2d	Wie
=1	=1	=1	=1	=1	=1
*M4/4	*	*M4/4	*	*M4/4	*
2r	.	2e	schön	2a	schön
4r	.	(4.d	leucht't	2f#	leucht't
4D	Wie	.	.	.	.
.	.	8c#)	.	.	.
=2	=2	=2	=2	=2	=2
4B	schön	4B	uns	2d	uns
4G	leucht't	4c#	der	.	.
(8DL	uns	[2d	Mor-	2a	der
8EJ)	.	.	.	.	.
4F#	der	.	.	.	.
=3	=3	=3	=3	=3	=3
*M3/2	*	*M3/2	*	*M3/2	*
4E	Mor-	4d]	.	4b	Mor-
4BB	gen-	4e	gen-	4b	gen-
2F#	stern	4f#,	stern	2a	stern
.	.	4f#	voll	.	.
4r	.	4e	Grad'	4r	.
4F#	voll	4d	und	4a	voll
!!LO:LB:g=original
=4	=4	=4	=4	=4	=4
2E	Gnad'	(2.g	Wahr-	4b	Gnad'
.	.	.	.	4cc#	und
4D	und	.	.	2dd	Wahr-
2G	Wahr-	8f#L	.	.	.
.	.	8eJ)	.	.	.
.	.	2f#	heit	2cc#	heit
4A	heit	.	.	.	.
=5	=5	=5	=5	=5	=5
4E	von	4g#	von	4b	von
4E	dem	4g#	dem	4b	dem
2A,	Herrn,	2a	Herrn,	2a	Herrn
2c	die	4r	.	4r	.
.	.	4a	die	4f#	die
=6	=6	=6	=6	=6	=6
4B	sü-	4g	sü-	2b	sü-
4c	ße	4g	ße	.	.
2.d	Wur-	2f#	Wur-	4a	ße
.	.	.	.	2g	Wur-
.	.	4e	zel	.	.
4G	zel	([4d	Jes-	4f#	zel
!!LO:LB:g=original
=7	=7	=7	=7	=7	=7
*M4/4	*	*M4/4	*	*M4/4	*
2A	Jes-	4d]	.	2e	Jes-
.	.	4c#)	.	.	.
2D	se!	2d	se!	2d	se!
=8:|!	=8:|!	=8:|!	=8:|!	=8:|!	=8:|!
*M4/4	*	*M4/4	*	*M4/4	*
1r	.	1r	.	2a	lieb-
.	.	.	.	2f#,	lich,
=9	=9	=9	=9	=9	=9
2r	.	(8aL	freund-	(4dd	freund-
.	.	8.b	.	.	.
.	.	.	.	8cc#L	.
.	.	16a	.	.	.
.	.	8gJ)	.	8bJ)	.
2F#	schön	2f#	lch,	2a	lich,
=10	=10	=10	=10	=10	=10
(8EL	und	1r	.	1r	.
8DJ)	.	.	.	.	.
2E	herr-	.	.	.	.
4E,	lich,	.	.	.	.
=11	=11	=11	=11	=11	=11
4F#	groß	1r	.	1r	.
(8GL	und	.	.	.	.
8F#J)	.	.	.	.	.
4E	ehr-	.	.	.	.
4E,	lich,	.	.	.	.
!!LO:LB:g=original
=12	=12	=12	=12	=12	=12
4F#	reich	2.a	hoch	4dd	hoch
4F#	an	.	.	8cc#	und
.	.	.	.	8b	sehr
4E	Ga-	.	.	([2a	präch-
4D,	ben,	4g	und	.	.
=13	=13	=13	=13	=13	=13
*M3/2	*	*M3/2	*	*M3/2	*
2d	hoch	2.f#	sehr	8aL]	.
.	.	.	.	8g	.
.	.	.	.	8a	.
.	.	.	.	8bJ	.
2A	und	.	.	2a)	.
.	.	4e	präch-	.	.
4B	sehr	[2d	tig	4g	tig
4A	präch-	.	.	4f#	er-
=14	=14	=14	=14	=14	=14
*M4/4	*	*M4/4	*	*M4/4	*
4G	tig	4d]	.	1e	ha-
4E	er-	(8c#L	er-	.	.
.	.	8BJ)	.	.	.
2A	ha-	2c#	ha-	.	.
=15	=15	=15	=15	=15	=15
1D	ben.	1d	ben.	1d	ben.
==	==	==	==	==	==
*-	*-	*-	*-	*-	*-
!!!YOR: Bärenreiter-Ausgabe 676
!!!YOY: 1933
!!!EFL: 11/52
!!!URL-github: https://github.com/LucasHofmann/distler/blob/main/Jahrkreis/Distler_Jahrkreis_11_Wie-schoen-leucht-uns-der-Morgenstern.krn
!!!URL-pdf: https://imslp.eu/files/imglnks/euimg/7/7d/IMSLP834545-PMLP518834-5-jahrkreis-EA--original-paper-600dpi.pdf#page=22 First edition, Kassel: Bärenreiter, 1933. Plate BA 676.
!!!URL-imslp: https://imslp.org/wiki/Der_Jahrkreis,_Op.5_(Distler,_Hugo)#IMSLP834545
!!!URL-youtube: https://www.youtube.com/watch?v=9mDxix7g6qM Ensemble Singklang
!!!system-decoration: [(s1,s2,s3)]
!!!ENC: Lucas Hofmann
!!!END: 2023/10/16
!!!title: @{OPR@@DE}, Op. @{OPS}, Nr. @{ONM}. <i>@{OTL@@DE}</i>
